X: 1
T:Traditional  "Originally this was a fiddle tune"
M:C
L:1/8
Q:80
C:Arr. Jamie MacInnis
S:Strathspey
K:HP
|: {g}A3/2{d}B/2{g}B/2d3/2{gef}e2{g}f/2g3/2|
d/2{e}G3/2{gBd}B3/2A/2{gGd}G2{g}((3GAB)|
{G}A3/2{d}B/2{g}B/2{d}G3/2{gAd}A2{a}g/2a3/2|  !
g/2{a}e3/2{gf}g3/2B/2{g}A2{GdGe}A:| [|
g|
{a}e/2a3/2{g}a3/2g/2a3/2g/2{a}e3/2g/2|
d/2{e}G3/2{gBd}B3/2A/2{g}G3/2{d}G/2{e}G3/2g/2|  !
a2{GdG}a3/2g/2a3/2g/2{a}e3/2g/2|
{a}d/2{e}B3/2{gf}g3/2B/2{gAGAG}A2{g}((3efg){ag}a3/2f/2{gf}g3/2e/2{gfg}f3
/2d/2{gef}e3/2d/2|
{g}B/2g3/2{aBd}B3/2A/2{g}G3/2{d}A/2{g}B/2d3/2|  !
{g}B/2{G}A3/2{g}B/2{d}G3/2{gAd}A2{a}g/2a3/2|
g/2{a}e3/2{gf}g3/2B/2{g}A2{GdGe}A2|]
